X:250
T:B250-  Jockey's jealousy
Q:1/4=120
L:1/4
M:C|
K:Dm
D|AAdd|(d/4e/4f/2) (e/2d/2)A2|c2(c/2d/2) (c/2A/2)|\
(B/2A/2) (G/2F/2)E2|DDAA|dd(d/4e/4f/2) (e/2d/2)|\
A3/2=B/2 (c/2B/2) (B/4c/4d/2)|c=BA2|A3||z/2A/2|\
(B/2A/2) (G/2F/2) (c/2d/2) (c/2A/2)|\
(d/2e/2) (d/2c/2)f3/2g/2|\
(a/2f/2) (e/2d/2) (c/2A/2) (d/2G/2)|G2F3/2f/2|\
(f/4g/4a/2) (g/2f/2)d3/2c/2|(c/4d/4=e/2) (d/2c/2)A3/2A/2|\
(B/2A/2) (G/2F/2) (E/2F/2) (E/2D/2)|^c2d|]

